src/icons/room-editor.svg

<svg fill="none" height="26" viewBox="0 0 26 26" width="26" xmlns="http://www.w3.org/2000/svg"><path d="m7.62068 10.931-2.48276 2.4828 2.48276 2.4827"/><path d="m10.931 7.6207 2.4828-2.48276 2.4827 2.48276"/><path d="m15.8965 19.2069-2.4827 2.4828-2.4828-2.4828"/><path d="m19.2069 10.931 2.4828 2.4828-2.4828 2.4827"/><path d="m5.13792 13.4138h16.55168"/><path d="m13.4138 5.13794v16.55176"/><path d="m5.13793 1h-2.48276c-.43898 0-.85998.17438-1.17038.48479-.31041.3104-.48479.7314-.48479 1.17038v2.48276m24 0v-2.48276c0-.43898-.1744-.85998-.4848-1.17038-.3104-.31041-.7314-.48479-1.1704-.48479h-2.4827m0 24h2.4827c.439 0 .86-.1744 1.1704-.4848s.4848-.7314.4848-1.1704v-2.4827m-24 0v2.4827c0 .439.17438.86.48479 1.1704.3104.3104.7314.4848 1.17038.4848h2.48276"/></svg>

<svg width="26" height="26" viewBox="0 0 26 26" fill="none" xmlns="http://www.w3.org/2000/svg">
<path d="M7.62068 10.931L5.13792 13.4138L7.62068 15.8965"/>
<path d="M10.931 7.6207L13.4138 5.13794L15.8965 7.6207"/>
<path d="M15.8965 19.2069L13.4138 21.6897L10.931 19.2069"/>
<path d="M19.2069 10.931L21.6897 13.4138L19.2069 15.8965"/>
<path d="M5.13792 13.4138H21.6896"/>
<path d="M13.4138 5.13794V21.6897"/>
<path d="M5.13793 1H2.65517C2.21619 1 1.79519 1.17438 1.48479 1.48479C1.17438 1.79519 1 2.21619 1 2.65517V5.13793M25 5.13793V2.65517C25 2.21619 24.8256 1.79519 24.5152 1.48479C24.2048 1.17438 23.7838 1 23.3448 1H20.8621M20.8621 25H23.3448C23.7838 25 24.2048 24.8256 24.5152 24.5152C24.8256 24.2048 25 23.7838 25 23.3448V20.8621M1 20.8621V23.3448C1 23.7838 1.17438 24.2048 1.48479 24.5152C1.79519 24.8256 2.21619 25 2.65517 25H5.13793"/>
</svg>
